public/brand/logo_mono.svg

<svg width="564" height="564" viewBox="0 0 564 564" fill="none" xmlns="http://www.w3.org/2000/svg"><path fill-rule="evenodd" clip-rule="evenodd" d="M196.045 33.043c-34.263 11.994-62.665 36.975-78.195 56.324l-.156.194-.167.184c-41.72 45.826-64.525 97.481-75.628 150.699l108.453-5.752a125.877 125.877 0 0 1 2.103-10.978l.07-.297.094-.291c3.391-10.591 11.541-25.081 25.567-33.387 14.755-8.737 34.319-9.65 57.787 4.306 6.962 4.084 17.565 10.198 26.766 15.281 4.616 2.549 8.807 4.8 11.986 6.398.882.443 1.655.82 2.316 1.132 5.27-2.442 12.393-4.873 19.865-5.707 6.631-.74 14.395-.286 21.284 3.35 6.955-7.89 16.134-15.08 25.143-21.098 11.614-7.757 23.71-14.068 32.268-17.885l.639-.285.679-.17c29.887-7.478 49.599-4.19 61.177 6.381 11.472 10.474 12.249 25.609 10.138 35.572l29.916-2.159c-5.035-16.366-14.148-31.233-26.976-44.423-7.697-7.914-16.111-13.303-24.813-16.799-12.363-4.966-25.562-6.209-38.413-5.114-21.589 1.839-41.488 10.223-53.07 17.348l-20.728 12.752 9.12-22.564c21.722-53.746-1.413-91.098-14.404-102.544-39.593-31.592-79.073-32.282-112.821-20.468Zm146.422 44.96c5.979 17.386 8.37 39.506 1.841 65.212 10.242-4.286 22.386-8.018 35.37-9.854-.372-6.165-2.653-13.354-6.204-20.752-4.385-9.135-10.125-17.391-14.209-22.37l-16.798-12.235Zm53.166 54.151c11.918-.088 24.286 1.721 36.276 6.466 4.881 1.411 11.003 4.637 17.21 8.36 6.642 3.985 14.148 9.016 21.691 14.345 15.096 10.663 30.689 22.764 40.459 30.668l.327.265.297.297c39.882 39.869 43.014 93.017 23.218 144.847-19.723 51.638-62.413 103.017-116.302 142.13-43.877 31.845-107.62 50.468-168.587 61.001-61.183 10.57-120.683 13.172-156.935 12.315l-2.378-.056-53.335-36.606-.581-3.311C26.401 452.52 13.897 379.361 17.697 305.131c.98-19.157 3.047-38.417 6.52-57.581 10.702-59.081 34.75-117.175 81.312-168.394 16.905-20.993 47.551-48.025 85.229-61.214C228.987 4.559 274.393 5.53 318.856 41.013l51.42 37.451.625.743c4.841 5.75 11.725 15.497 16.997 26.478 3.795 7.905 7.127 17.211 7.735 26.469Zm90.993 60.786a117.71 117.71 0 0 1 9.491 27.554c10.559 50.097-10.458 110.053-68.659 175.803-30.416 37.167-85.949 69.442-153.316 91.646-60.214 19.848-130.645 31.907-202.752 32.047l24.643 16.913c35.53.669 92.73-1.99 151.465-12.137 60.274-10.413 121.06-28.533 161.912-58.183 52.022-37.757 92.392-86.816 110.754-134.89 18.236-47.745 14.55-93.459-19.29-127.528a804.172 804.172 0 0 0-14.248-11.225ZM51.633 503.721c-9.98-57.121-20.767-123.46-18.269-190.704l110.541-7.826a31.35 31.35 0 0 0 1.113 3.518c3.866 10.125 12.37 16.963 18.75 20.301l.821.429.897.23a99.278 99.278 0 0 0 7.873 1.683c22.121 3.808 44.711.231 63.78-5.596 17.292-5.283 32.171-12.563 41.887-18.512 8.125 3.122 18.676 4.76 29.69.805 12.045 9.846 29.671 21.393 47.696 27.193 10.071 3.24 20.857 4.879 31.103 2.899 8.714-1.683 16.678-5.926 23.129-13.289 4.488.907 9.841.582 14.838-2.867 7.733-5.337 11.329-15.996 11.329-31.217v-.383l-.037-.382a87.518 87.518 0 0 1-.334-5.645l41.438-3.674c-8.462 31.326-28.359 66.576-62.503 105.123l-.106.12-.102.125c-27.639 33.847-79.927 64.906-146.034 86.696-64.099 21.127-140.294 33.236-217.5 30.973Zm429.694-239.406c1.777-11.873 1.831-23.11.337-33.672l-38.928 2.809c-3.453 12.419-5.177 24.612-5.906 34.809l44.497-3.946Zm-69.02 44.395c1.849.831 3.318.637 4.087.107.725-.501 2.671-2.479 3.722-8.595-3.899-4.037-10.014-7.286-18.21-9.461-9.547-2.533-21.028-3.357-32.762-2.71-8.388.462-16.723 1.666-24.341 3.432 6.068.402 12.298.964 18.428 1.724 9.809 1.217 19.562 2.964 28.073 5.452 7.903 2.311 15.51 5.477 21.003 10.051Zm-97.778-23.106c5.007-2.805 10.79-5.142 16.816-7.036 11.068-3.479 23.996-5.781 36.919-6.493 12.894-.711 26.139.142 37.746 3.222 5.016 1.331 9.904 3.127 14.375 5.503-.047-16.489 2.409-42.767 12.312-67.677 1.293-6.813.129-14.827-5.389-19.865-5.57-5.085-18.272-9.613-45.826-2.844-7.8 3.524-18.774 9.287-29.262 16.292-10.93 7.301-20.587 15.465-25.909 23.339-2.321 3.435-3.574 6.463-3.972 9.052l-.067.437-.115.426c-.747 2.776-1.641 7.196-1.895 11.213-.127 2.018-.071 3.627.114 4.743.048.291.097.5.136.64l4.365 4.369-3.934 5.512c-1.88 2.634-4.492 7.564-5.724 13.1-.461 2.073-.705 4.107-.69 6.067Zm-14.985 8.375c-1.558-6.281-1.14-12.538.057-17.916 1.25-5.622 3.436-10.722 5.653-14.685a21.444 21.444 0 0 1-.662-2.844c-.459-2.765-.466-5.702-.298-8.369.325-5.15 1.385-10.44 2.304-13.954.485-2.854 1.382-5.608 2.572-8.243-2.856-1.081-6.374-1.377-10.489-.918-4.76.532-9.517 2.016-13.292 3.606-.313 1.563-.747 3.358-1.199 5.181-.207.833-.425 1.703-.652 2.607-1.208 4.811-2.658 10.587-3.842 16.809-1.41 7.408-2.35 15.008-2.072 21.73.252 6.086 1.472 10.62 3.465 13.666 5.082 2.682 11.64 4.554 18.455 3.33Zm-37.413-10.616a61.808 61.808 0 0 1-.493-5.717c-.352-8.49.832-17.46 2.34-25.385 1.279-6.72 2.858-13.004 4.064-17.807a390.663 390.663 0 0 0 .927-3.726 116.99 116.99 0 0 1-1.429-.709c-3.457-1.737-7.862-4.105-12.537-6.688-9.371-5.176-20.112-11.371-27.146-15.497l-.021-.013-.022-.013c-19.378-11.531-32.623-9.544-41.475-4.302-9.476 5.612-15.699 16.013-18.391 24.217-5.343 22.746-2.05 41.151-.147 46.674l1.507 4.373-3.038 3.488c-8.264 9.486-8.012 16.273-6.305 20.744.224.585.483 1.159.774 1.719a18.225 18.225 0 0 1 1.041-3.325c1.714-4.063 4.834-7.331 9.078-9.667 4.886-2.689 12.431-4.576 20.371-5.956 8.244-1.432 17.936-2.478 27.791-3.08 14.84-.907 30.818-.853 43.111.67Zm-83.009 32.691c17.905 2.441 36.639-.496 53.342-5.599a180.905 180.905 0 0 0 27.944-11.188c-10.569-1.334-25.504-1.515-40.412-.604-9.419.575-18.503 1.567-26.028 2.874-7.827 1.36-13.041 2.914-15.395 4.209-1.547.852-1.926 1.571-2.051 1.869-.166.394-.312 1.113-.086 2.365.351 1.948 1.422 4.167 2.686 6.074Zm90.789-89.803Zm64.582 80.7c8.349 5.301 17.645 10.108 26.819 13.06 8.6 2.767 16.5 3.709 23.168 2.421 4.033-.78 7.796-2.401 11.177-5.227-2.465-1.112-5.413-2.185-8.844-3.189-7.391-2.161-16.225-3.774-25.551-4.93-8.967-1.112-18.206-1.78-26.769-2.135Zm-190.247-17.824c1.296-4.543 3.634-9.216 7.173-13.938-1.365-5.753-2.52-14.215-2.365-24.406l-110.17 5.844c-2.203 13.377-3.72 26.829-4.661 40.289l110.023-7.789Z" fill="#000"/></svg>

<svg width="564" height="564" viewBox="0 0 564 564" fill="none" xmlns="http://www.w3.org/2000/svg">
<path fill-rule="evenodd" clip-rule="evenodd" d="M196.045 33.0431C161.782 45.0368 133.38 70.0184 117.85 89.3668L117.694 89.5608L117.527 89.7448C75.8065 135.571 53.0017 187.226 41.8994 240.444L150.352 234.692C150.87 231.139 151.561 227.471 152.455 223.714L152.525 223.417L152.619 223.126C156.01 212.535 164.16 198.045 178.186 189.739C192.941 181.002 212.505 180.089 235.973 194.045C242.935 198.129 253.538 204.243 262.739 209.326C267.355 211.875 271.546 214.126 274.725 215.724C275.607 216.167 276.38 216.544 277.041 216.856C282.311 214.414 289.434 211.983 296.906 211.149C303.537 210.409 311.301 210.863 318.19 214.499C325.145 206.609 334.324 199.419 343.333 193.401C354.947 185.644 367.043 179.333 375.601 175.516L376.24 175.231L376.919 175.061C406.806 167.583 426.518 170.871 438.096 181.442C449.568 191.916 450.345 207.051 448.234 217.014L478.15 214.855C473.115 198.489 464.002 183.622 451.174 170.432C443.477 162.518 435.063 157.129 426.361 153.633C413.998 148.667 400.799 147.424 387.948 148.519C366.359 150.358 346.46 158.742 334.878 165.867L314.15 178.619L323.27 156.055C344.992 102.309 321.857 64.9574 308.866 53.5109C269.273 21.9191 229.793 21.2293 196.045 33.0431ZM342.467 78.0037C348.446 95.3889 350.837 117.509 344.308 143.215C354.55 138.929 366.694 135.197 379.678 133.361C379.306 127.196 377.025 120.007 373.474 112.609C369.089 103.474 363.349 95.218 359.265 90.2388L342.467 78.0037ZM395.633 132.154C407.551 132.066 419.919 133.875 431.909 138.62C436.79 140.031 442.912 143.257 449.119 146.98C455.761 150.965 463.267 155.996 470.81 161.325C485.906 171.988 501.499 184.089 511.269 191.993L511.596 192.258L511.893 192.555C551.775 232.424 554.907 285.572 535.111 337.402C515.388 389.04 472.698 440.419 418.809 479.532C374.932 511.377 311.189 530 250.222 540.533C189.039 551.103 129.539 553.705 93.2865 552.848L90.9092 552.792L37.5741 516.186L36.993 512.875C26.401 452.52 13.8968 379.361 17.6971 305.131C18.6779 285.974 20.7445 266.714 24.2162 247.55C34.9189 188.469 58.9677 130.375 105.529 79.1562C122.434 58.1634 153.08 31.1312 190.758 17.9416C228.987 4.55936 274.393 5.52965 318.856 41.0132L370.276 78.4641L370.901 79.2069C375.742 84.9573 382.626 94.7035 387.898 105.685C391.693 113.59 395.025 122.896 395.633 132.154ZM486.626 192.94C490.889 201.647 494.082 210.842 496.117 220.494C506.676 270.591 485.659 330.547 427.458 396.297C397.042 433.464 341.509 465.739 274.142 487.943C213.928 507.791 143.497 519.85 71.3904 519.99L96.0333 536.903C131.563 537.572 188.763 534.913 247.498 524.766C307.772 514.353 368.558 496.233 409.41 466.583C461.432 428.826 501.802 379.767 520.164 331.693C538.4 283.948 534.714 238.234 500.874 204.165C496.922 200.972 492.031 197.105 486.626 192.94ZM51.6331 503.721C41.6521 446.6 30.8665 380.261 33.3643 313.017L143.905 305.191C144.206 306.384 144.578 307.557 145.018 308.709C148.884 318.834 157.388 325.672 163.768 329.01L164.589 329.439L165.486 329.669C168.101 330.341 170.727 330.899 173.359 331.352C195.48 335.16 218.07 331.583 237.139 325.756C254.431 320.473 269.31 313.193 279.026 307.244C287.151 310.366 297.702 312.004 308.716 308.049C320.761 317.895 338.387 329.442 356.412 335.242C366.483 338.482 377.269 340.121 387.515 338.141C396.229 336.458 404.193 332.215 410.644 324.852C415.132 325.759 420.485 325.434 425.482 321.985C433.215 316.648 436.811 305.989 436.811 290.768V290.385L436.774 290.003C436.625 288.453 436.506 286.553 436.44 284.358L477.878 280.684C469.416 312.01 449.519 347.26 415.375 385.807L415.269 385.927L415.167 386.052C387.528 419.899 335.24 450.958 269.133 472.748C205.034 493.875 128.839 505.984 51.6331 503.721ZM481.327 264.315C483.104 252.442 483.158 241.205 481.664 230.643L442.736 233.452C439.283 245.871 437.559 258.064 436.83 268.261L481.327 264.315ZM412.307 308.71C414.156 309.541 415.625 309.347 416.394 308.817C417.119 308.316 419.065 306.338 420.116 300.222C416.217 296.185 410.102 292.936 401.906 290.761C392.359 288.228 380.878 287.404 369.144 288.051C360.756 288.513 352.421 289.717 344.803 291.483C350.871 291.885 357.101 292.447 363.231 293.207C373.04 294.424 382.793 296.171 391.304 298.659C399.207 300.97 406.814 304.136 412.307 308.71ZM314.529 285.604C319.536 282.799 325.319 280.462 331.345 278.568C342.413 275.089 355.341 272.787 368.264 272.075C381.158 271.364 394.403 272.217 406.01 275.297C411.026 276.628 415.914 278.424 420.385 280.8C420.338 264.311 422.794 238.033 432.697 213.123C433.99 206.31 432.826 198.296 427.308 193.258C421.738 188.173 409.036 183.645 381.482 190.414C373.682 193.938 362.708 199.701 352.22 206.706C341.29 214.007 331.633 222.171 326.311 230.045C323.99 233.48 322.737 236.508 322.339 239.097L322.272 239.534L322.157 239.96C321.41 242.736 320.516 247.156 320.262 251.173C320.135 253.191 320.191 254.8 320.376 255.916C320.424 256.207 320.473 256.416 320.512 256.556L324.877 260.925L320.943 266.437C319.063 269.071 316.451 274.001 315.219 279.537C314.758 281.61 314.514 283.644 314.529 285.604ZM299.544 293.979C297.986 287.698 298.404 281.441 299.601 276.063C300.851 270.441 303.037 265.341 305.254 261.378C304.94 260.364 304.734 259.393 304.592 258.534C304.133 255.769 304.126 252.832 304.294 250.165C304.619 245.015 305.679 239.725 306.598 236.211C307.083 233.357 307.98 230.603 309.17 227.968C306.314 226.887 302.796 226.591 298.681 227.05C293.921 227.582 289.164 229.066 285.389 230.656C285.076 232.219 284.642 234.014 284.19 235.837C283.983 236.67 283.765 237.54 283.538 238.444C282.33 243.255 280.88 249.031 279.696 255.253C278.286 262.661 277.346 270.261 277.624 276.983C277.876 283.069 279.096 287.603 281.089 290.649C286.171 293.331 292.729 295.203 299.544 293.979ZM262.131 283.363C261.872 281.447 261.716 279.531 261.638 277.646C261.286 269.156 262.47 260.186 263.978 252.261C265.257 245.541 266.836 239.257 268.042 234.454C268.262 233.58 268.469 232.755 268.66 231.986C268.77 231.541 268.873 231.122 268.969 230.728C268.505 230.502 268.028 230.265 267.54 230.019C264.083 228.282 259.678 225.914 255.003 223.331C245.632 218.155 234.891 211.96 227.857 207.834L227.836 207.821L227.814 207.808C208.436 196.277 195.191 198.264 186.339 203.506C176.863 209.118 170.64 219.519 167.948 227.723C162.605 250.469 165.898 268.874 167.801 274.397L169.308 278.77L166.27 282.258C158.006 291.744 158.258 298.531 159.965 303.002C160.189 303.587 160.448 304.161 160.739 304.721C160.972 303.618 161.312 302.505 161.78 301.396C163.494 297.333 166.614 294.065 170.858 291.729C175.744 289.04 183.289 287.153 191.229 285.773C199.473 284.341 209.165 283.295 219.02 282.693C233.86 281.786 249.838 281.84 262.131 283.363ZM179.122 316.054C197.027 318.495 215.761 315.558 232.464 310.455C243.079 307.211 252.66 303.158 260.408 299.267C249.839 297.933 234.904 297.752 219.996 298.663C210.577 299.238 201.493 300.23 193.968 301.537C186.141 302.897 180.927 304.451 178.573 305.746C177.026 306.598 176.647 307.317 176.522 307.615C176.356 308.009 176.21 308.728 176.436 309.98C176.787 311.928 177.858 314.147 179.122 316.054ZM269.911 226.251C269.911 226.252 269.91 226.262 269.908 226.281C269.91 226.26 269.911 226.25 269.911 226.251ZM334.493 306.951C342.842 312.252 352.138 317.059 361.312 320.011C369.912 322.778 377.812 323.72 384.48 322.432C388.513 321.652 392.276 320.031 395.657 317.205C393.192 316.093 390.244 315.02 386.813 314.016C379.422 311.855 370.588 310.242 361.262 309.086C352.295 307.974 343.056 307.306 334.493 306.951ZM144.246 289.127C145.542 284.584 147.88 279.911 151.419 275.189C150.054 269.436 148.899 260.974 149.054 250.783L38.8839 256.627C36.6807 270.004 35.1638 283.456 34.2226 296.916L144.246 289.127Z" fill="black"/>
</svg>
